X: 1
T: Inventio 1
C: Johann Sebastian Bach
%%abc-version 2.0
%%abcx-abcm2ps-target-version 5.9.1 (29 Sep 2008)
%%abc-creator hum2abc beta
%%abcx-conversion-date 2021/01/28 10:10:55
%%abc-copyright Copyright 1994, David Huron
%%abc-edited-by David Huron
%%abcx-initial-encoding-date 1986 November
%%gracespace 0 6 6
%%humdrum-veritas 2244831962
%%humdrum-veritas-data 840646029
%%linebreak <none>
%%barnumbers 0
L: 1/16
M: 4/4
N: Derived from inven01.krn
Q: 1/4=60
%%staves {1 2}
V: 1 clef=treble
V: 2 clef=bass
K: C
[V:1] z C D E F D E C G2 c2 !mordent!B2 c2 | 
[V:2] z8z C, D, E, F, D, E, C, | 
[V:1] d G A B c A B G d2 g2 !mordent!f2 g2 | 
[V:2] G,2 G,,2z4z G, A, B, C A, B, G, | 
[V:1] e a g f e g f a g f e d c e d f | 
[V:2] C2 B,2 C2 D2 E2 G,2 A,2 B,2 | 
[V:1] e d c B A c B d c B A G ^F A G B | 
[V:2] C2 E,2 ^F,2 G,2 A,2 B,2C4- | 
[V:1] A2 D2 !uppermordent!c2> d2 B A G ^F E G F A | 
[V:2] C D, E, ^F, G, E, F, D, G,2 B,,2 C,2 D,2 | 
[V:1] G B A c B d c e d B/ c/ d g !mordent!B2 A G | 
[V:2] E,2 ^F,2 G,2 E,2 B,,2> C,2 D,2 D,,2 | 
[V:1] G2 z2z4z G A B c A B G | 
[V:2] z G,, A,, B,, C, A,, B,, G,, D,2 G,2 ^F,2 G,2 | 
[V:1] !mordent!^F2 z2z4z A B c d B c A | 
[V:2] A, D, E, ^F, G, E, F, D, A,2 D2 C2 D2 | 
[V:1] B2 z2z4z d c B A c B d | 
[V:2] G, G F E D F E G F2 E2 F2 D2 | 
[V:1] c2 z2z4z e d c B d ^c e | 
[V:2] E A G F E G F A G2 F2 G2 E2 | 
[V:1] d2 ^c2 d2 e2 f2 A2 =B2 c2 | 
[V:2] F _B A G F A G B A G F E D F E G | 
[V:1] d2 ^F2 ^G2 A2 B2 c2d4- | 
[V:2] F E D C B, D C E D C B, A, ^G, B, A, C | 
[V:1] d E ^F ^G A F G E e d c e d c B d | 
[V:2] B,2 E,2 !uppermordent!D2> E2 C B, A, =G, ^F, A, ^G, B, | 
[V:1] c a ^g b a e f d ^G f e d c2 B A | 
[V:2] A, C B, D C E D F E2 A,2 E2 E,2 | 
[V:1] A a g f e g f ag8- | 
[V:2] A,2 A,,2z4z E D C B, D ^C E | 
[V:1] g e f g a f g ef8- | 
[V:2] D8-D A, B, C D B, C A, | 
[V:1] f g f e d f e gf8- | 
[V:2] B,8-B, D C B, A, C B, D | 
[V:1] f d e f g e f de8- | 
[V:2] C8-C G, A, _B, C A, B, G, | 
[V:1] e c d e f d e c d e f g a f g e | 
[V:2] A,2 _B,2 A,2 G,2 F,2 D2 C2 B,2 | 
[V:1] f g a b c' a b g c'2 g2 e2 d c | 
[V:2] A,2 F2 E2 D2 E D, E, F, G, E, F, D, | 
[V:1] c _B A G F A G B A =B c E D c F B | 
[V:2] E,2 C,2 D,2 E,2 F, D, E, F, G,2 G,,2 | 
[V:1] !fermata![E16G16c16] |]  
[V:2] !fermata![C,,16C,16] |]  


